X: 1278
T: Bill McGlashan's Polka Mazurka No 2
B: australian traditional tunes wiki
M:3/4
L:1/8
R: Polka Mazurka
Q: 1/4=100
K:G
V:1 
D2|"G"B3A G>E|D3G F>G|"D7"A3A c>F|"G"G2G2D2|
B3A G>E|D3G F>G|"D7"A3A c>F|"G"G2G2:|
D2|"D7"E2c2c2|"G"d>BG2D2|"D7"E2c2c2|"G"B4zD|
"D7"E2c2c2|"G"d>BG3D|"Am"E2c2"D7"F2|"G"G4:|
% abcbook-tune_id 6342d53a771c2e8f1fb1f5d9


% abcbook-boost 0
% abcbook-tablature 
% abcbook-transpose 
% abcbook-lastupdated 1665324357181
% abcbook-soundfonts 
% abcbook-repeats 1
% NFF Book 2008

